svg/color/lexi.svg

<?xml version="1.0" encoding="UTF-8" ?>
<!DOCTYPE svg PUBLIC "-//W3C//DTD SVG 1.1//EN" "http://www.w3.org/Graphics/SVG/1.1/DTD/svg11.dtd">
<svg width="250pt" height="250pt" viewBox="0 0 250 250" version="1.1" xmlns="http://www.w3.org/2000/svg">
<g id="#ffffffff">
<path fill="#ffffff" opacity="1.00" d=" M 0.00 0.00 L 112.59 0.00 C 112.53 18.80 112.71 37.60 112.49 56.39 C 84.70 56.00 56.89 56.32 29.09 56.23 C 29.22 56.73 29.49 57.74 29.63 58.24 C 30.06 58.52 30.91 59.07 31.34 59.35 C 38.83 66.65 46.21 74.06 53.71 81.35 C 55.19 82.73 56.72 84.67 59.00 84.28 C 76.83 84.15 94.68 84.52 112.50 84.09 C 112.64 93.18 112.64 102.27 112.51 111.36 C 84.64 111.28 56.77 111.12 28.91 111.44 C 37.57 120.30 46.74 128.67 55.38 137.55 C 56.39 139.13 58.42 138.63 59.99 138.74 C 77.50 138.63 95.00 138.84 112.51 138.64 C 112.63 147.56 112.66 156.49 112.49 165.41 C 84.64 165.21 56.77 165.26 28.92 165.39 C 37.89 175.03 47.45 184.13 56.67 193.54 C 75.31 193.41 93.95 193.65 112.59 193.43 C 112.44 212.28 112.88 231.16 112.37 250.00 L 0.00 250.00 L 0.00 0.00 Z" />
<path fill="#ffffff" opacity="1.00" d=" M 117.68 0.00 L 132.66 0.00 C 132.64 18.74 132.70 37.49 132.63 56.23 C 127.56 56.31 122.49 56.03 117.44 56.40 C 117.22 39.26 117.44 22.13 117.32 5.00 C 117.34 3.33 117.20 1.62 117.68 0.00 Z" />
<path fill="#ffffff" opacity="1.00" d=" M 137.53 0.00 L 250.00 0.00 L 250.00 250.00 L 137.36 250.00 C 137.39 231.17 137.28 212.33 137.41 193.50 C 165.30 193.49 193.18 193.60 221.07 193.44 C 212.24 183.81 202.67 174.85 193.55 165.49 C 174.87 165.03 156.12 165.44 137.42 165.29 C 137.31 156.43 137.33 147.56 137.41 138.70 C 165.30 138.63 193.20 138.93 221.09 138.55 C 211.98 129.44 202.52 120.67 193.60 111.37 C 174.87 111.18 156.14 111.31 137.41 111.30 C 137.33 102.29 137.30 93.27 137.43 84.25 C 163.96 84.32 190.49 84.23 217.03 84.30 C 218.51 84.45 219.85 84.09 221.04 83.20 C 218.09 81.52 215.99 78.78 213.56 76.49 C 207.09 69.90 200.21 63.69 194.03 56.84 L 193.72 56.68 C 192.61 56.07 191.29 56.10 190.07 56.08 C 172.44 56.18 154.81 56.05 137.18 56.13 C 137.70 37.43 137.01 18.70 137.53 0.00 Z" />
<path fill="#ffffff" opacity="1.00" d=" M 117.08 83.63 C 121.87 85.40 127.49 83.96 132.60 84.38 C 132.70 93.36 132.68 102.33 132.60 111.31 C 127.54 111.30 122.48 111.20 117.43 111.37 C 117.06 102.13 117.78 92.84 117.08 83.63 Z" />
<path fill="#ffffff" opacity="1.00" d=" M 117.43 138.63 C 122.49 138.80 127.54 138.69 132.60 138.69 C 132.69 147.56 132.70 156.43 132.59 165.30 C 127.55 165.35 122.50 165.18 117.47 165.41 C 117.26 156.49 117.32 147.56 117.43 138.63 Z" />
<path fill="#ffffff" opacity="1.00" d=" M 117.37 193.42 C 122.44 193.60 127.52 193.50 132.60 193.47 C 132.61 212.31 132.87 231.17 132.47 250.00 L 117.35 250.00 C 117.36 231.14 117.33 212.28 117.37 193.42 Z" />
</g>
<g id="#fd1991ff">
<path fill="#fd1991" opacity="1.00" d=" M 112.59 0.00 L 117.68 0.00 C 117.20 1.62 117.34 3.33 117.32 5.00 C 117.44 22.13 117.22 39.26 117.44 56.40 C 115.79 56.53 114.14 56.52 112.49 56.39 C 112.71 37.60 112.53 18.80 112.59 0.00 Z" />
<path fill="#fd1991" opacity="1.00" d=" M 112.50 84.09 C 114.03 83.92 115.55 83.75 117.08 83.63 C 117.78 92.84 117.06 102.13 117.43 111.37 C 115.79 111.41 114.14 111.40 112.51 111.36 C 112.64 102.27 112.64 93.18 112.50 84.09 Z" />
<path fill="#fd1991" opacity="1.00" d=" M 112.51 138.64 C 114.15 138.59 115.79 138.59 117.43 138.63 C 117.32 147.56 117.26 156.49 117.47 165.41 C 115.81 165.48 114.15 165.48 112.49 165.41 C 112.66 156.49 112.63 147.56 112.51 138.64 Z" />
<path fill="#fd1991" opacity="1.00" d=" M 112.59 193.43 C 114.18 193.38 115.77 193.38 117.37 193.42 C 117.33 212.28 117.36 231.14 117.35 250.00 L 112.37 250.00 C 112.88 231.16 112.44 212.28 112.59 193.43 Z" />
</g>
<g id="#03a3feff">
<path fill="#03a3fe" opacity="1.00" d=" M 132.66 0.00 L 137.53 0.00 C 137.01 18.70 137.70 37.43 137.18 56.13 C 154.81 56.05 172.44 56.18 190.07 56.08 C 191.29 56.10 192.61 56.07 193.72 56.68 C 174.90 57.07 156.06 56.76 137.23 56.82 C 137.70 65.95 137.31 75.11 137.43 84.25 C 137.30 93.27 137.33 102.29 137.41 111.30 C 137.45 120.43 137.45 129.57 137.41 138.70 C 137.33 147.56 137.31 156.43 137.42 165.29 C 137.44 174.69 137.46 184.10 137.41 193.50 C 137.28 212.33 137.39 231.17 137.36 250.00 L 132.47 250.00 C 132.87 231.17 132.61 212.31 132.60 193.47 C 132.56 184.08 132.57 174.69 132.59 165.30 C 132.70 156.43 132.69 147.56 132.60 138.69 C 132.56 129.56 132.56 120.44 132.60 111.31 C 132.68 102.33 132.70 93.36 132.60 84.38 L 132.57 83.74 C 132.59 74.95 132.54 66.16 132.61 57.38 C 132.61 56.99 132.62 56.61 132.63 56.23 C 132.70 37.49 132.64 18.74 132.66 0.00 Z" />
</g>
<g id="#50585eff">
<path fill="#50585e" opacity="1.00" d=" M 29.09 56.23 C 56.89 56.32 84.70 56.00 112.49 56.39 C 114.14 56.52 115.79 56.53 117.44 56.40 C 122.49 56.03 127.56 56.31 132.63 56.23 C 132.62 56.61 132.61 56.99 132.61 57.38 L 130.66 57.41 C 130.66 65.94 130.26 74.51 130.81 83.02 L 132.57 83.74 L 132.60 84.38 C 127.49 83.96 121.87 85.40 117.08 83.63 C 121.54 83.21 126.03 83.52 130.50 83.37 C 130.35 74.72 130.41 66.06 130.50 57.40 C 97.42 57.25 64.34 57.34 31.26 57.34 L 31.34 59.35 C 30.91 59.07 30.06 58.52 29.63 58.24 C 29.49 57.74 29.22 56.73 29.09 56.23 Z" />
</g>
<g id="#000000ff">
<path fill="#000000" opacity="1.00" d=" M 137.23 56.82 C 156.06 56.76 174.90 57.07 193.72 56.68 L 194.03 56.84 C 200.21 63.69 207.09 69.90 213.56 76.49 C 215.99 78.78 218.09 81.52 221.04 83.20 C 219.85 84.09 218.51 84.45 217.03 84.30 C 190.49 84.23 163.96 84.32 137.43 84.25 C 137.31 75.11 137.70 65.95 137.23 56.82 Z" />
<path fill="#000000" opacity="1.00" d=" M 31.26 57.34 C 64.34 57.34 97.42 57.25 130.50 57.40 C 130.41 66.06 130.35 74.72 130.50 83.37 C 126.03 83.52 121.54 83.21 117.08 83.63 C 115.55 83.75 114.03 83.92 112.50 84.09 C 94.68 84.52 76.83 84.15 59.00 84.28 C 56.72 84.67 55.19 82.73 53.71 81.35 C 46.21 74.06 38.83 66.65 31.34 59.35 L 31.26 57.34 Z" />
<path fill="#000000" opacity="1.00" d=" M 130.66 57.41 L 132.61 57.38 C 132.54 66.16 132.59 74.95 132.57 83.74 L 130.81 83.02 C 130.26 74.51 130.66 65.94 130.66 57.41 Z" />
<path fill="#000000" opacity="1.00" d=" M 28.91 111.44 C 56.77 111.12 84.64 111.28 112.51 111.36 C 114.14 111.40 115.79 111.41 117.43 111.37 C 122.48 111.20 127.54 111.30 132.60 111.31 C 132.56 120.44 132.56 129.56 132.60 138.69 C 127.54 138.69 122.49 138.80 117.43 138.63 C 115.79 138.59 114.15 138.59 112.51 138.64 C 95.00 138.84 77.50 138.63 59.99 138.74 C 58.42 138.63 56.39 139.13 55.38 137.55 C 46.74 128.67 37.57 120.30 28.91 111.44 Z" />
<path fill="#000000" opacity="1.00" d=" M 137.41 111.30 C 156.14 111.31 174.87 111.18 193.60 111.37 C 202.52 120.67 211.98 129.44 221.09 138.55 C 193.20 138.93 165.30 138.63 137.41 138.70 C 137.45 129.57 137.45 120.43 137.41 111.30 Z" />
<path fill="#000000" opacity="1.00" d=" M 28.92 165.39 C 56.77 165.26 84.64 165.21 112.49 165.41 C 114.15 165.48 115.81 165.48 117.47 165.41 C 122.50 165.18 127.55 165.35 132.59 165.30 C 132.57 174.69 132.56 184.08 132.60 193.47 C 127.52 193.50 122.44 193.60 117.37 193.42 C 115.77 193.38 114.18 193.38 112.59 193.43 C 93.95 193.65 75.31 193.41 56.67 193.54 C 47.45 184.13 37.89 175.03 28.92 165.39 Z" />
<path fill="#000000" opacity="1.00" d=" M 137.42 165.29 C 156.12 165.44 174.87 165.03 193.55 165.49 C 202.67 174.85 212.24 183.81 221.07 193.44 C 193.18 193.60 165.30 193.49 137.41 193.50 C 137.46 184.10 137.44 174.69 137.42 165.29 Z" />
</g>
</svg>

<?xml version="1.0" encoding="utf-8"?>
<!-- Generator: Adobe Illustrator 26.0.3, SVG Export Plug-In . SVG Version: 6.00 Build 0)  -->
<svg version="1.1" id="Layer_1" xmlns="http://www.w3.org/2000/svg" xmlns:xlink="http://www.w3.org/1999/xlink" x="0px" y="0px"
	 viewBox="0 0 250 250" style="enable-background:new 0 0 250 250;" xml:space="preserve">
<style type="text/css">
	.st0{fill:#FFFFFF;}
	.st1{fill:#FD1991;}
	.st2{fill:#03A3FE;}
	.st3{fill:#50585E;}
</style>
<g id="_x23_ffffffff">
	<path class="st0" d="M117.7,0h15c0,18.7,0,37.5,0,56.2c-5.1,0.1-10.1-0.2-15.2,0.2c-0.2-17.1,0-34.3-0.1-51.4
		C117.3,3.3,117.2,1.6,117.7,0z"/>
	<path class="st0" d="M117.1,83.6c4.8,1.8,10.4,0.3,15.5,0.8c0.1,9,0.1,18,0,26.9c-5.1,0-10.1-0.1-15.2,0.1
		C117.1,102.1,117.8,92.8,117.1,83.6z"/>
	<path class="st0" d="M117.4,138.6c5.1,0.2,10.1,0.1,15.2,0.1c0.1,8.9,0.1,17.7,0,26.6c-5,0.1-10.1-0.1-15.1,0.1
		C117.3,156.5,117.3,147.6,117.4,138.6z"/>
	<path class="st0" d="M117.4,193.4c5.1,0.2,10.1,0.1,15.2,0.1c0,18.8,0.3,37.7-0.1,56.5h-15.1C117.4,231.1,117.3,212.3,117.4,193.4z
		"/>
</g>
<g id="_x23_fd1991ff">
	<path class="st1" d="M112.6,0h5.1c-0.5,1.6-0.3,3.3-0.4,5c0.1,17.1-0.1,34.3,0.1,51.4c-1.7,0.1-3.3,0.1-5,0
		C112.7,37.6,112.5,18.8,112.6,0z"/>
	<path class="st1" d="M112.5,84.1c1.5-0.2,3.1-0.3,4.6-0.5c0.7,9.2,0,18.5,0.3,27.7c-1.6,0-3.3,0-4.9,0
		C112.6,102.3,112.6,93.2,112.5,84.1z"/>
	<path class="st1" d="M112.5,138.6c1.6-0.1,3.3-0.1,4.9,0c-0.1,8.9-0.2,17.9,0,26.8c-1.7,0.1-3.3,0.1-5,0
		C112.7,156.5,112.6,147.6,112.5,138.6z"/>
	<path class="st1" d="M112.6,193.4c1.6,0,3.2,0,4.8,0c0,18.9,0,37.7,0,56.6h-5C112.9,231.2,112.4,212.3,112.6,193.4z"/>
</g>
<g id="_x23_03a3feff">
	<path class="st2" d="M132.7,0h4.9c-0.5,18.7,0.2,37.4-0.4,56.1c17.6-0.1,35.3,0,52.9,0c1.2,0,2.5,0,3.6,0.6
		c-18.8,0.4-37.7,0.1-56.5,0.1c0.5,9.1,0.1,18.3,0.2,27.4c-0.1,9-0.1,18,0,27.1c0,9.1,0,18.3,0,27.4c-0.1,8.9-0.1,17.7,0,26.6
		c0,9.4,0,18.8,0,28.2c-0.1,18.8,0,37.7-0.1,56.5h-4.9c0.4-18.8,0.1-37.7,0.1-56.5c0-9.4,0-18.8,0-28.2c0.1-8.9,0.1-17.7,0-26.6
		c0-9.1,0-18.2,0-27.4c0.1-9,0.1-17.9,0-26.9l0-0.6c0-8.8,0-17.6,0-26.4c0-0.4,0-0.8,0-1.2C132.7,37.5,132.6,18.7,132.7,0z"/>
</g>
<g id="_x23_50585eff">
	<path class="st3" d="M29.1,56.2c27.8,0.1,55.6-0.2,83.4,0.2c1.7,0.1,3.3,0.1,5,0c5-0.4,10.1-0.1,15.2-0.2c0,0.4,0,0.8,0,1.2l-1.9,0
		c0,8.5-0.4,17.1,0.1,25.6l1.8,0.7l0,0.6c-5.1-0.4-10.7,1-15.5-0.8c4.5-0.4,8.9-0.1,13.4-0.3c-0.1-8.7-0.1-17.3,0-26
		c-33.1-0.2-66.2-0.1-99.2-0.1l0.1,2c-0.4-0.3-1.3-0.8-1.7-1.1C29.5,57.7,29.2,56.7,29.1,56.2z"/>
</g>
<g id="_x23_000000ff">
	<path d="M137.2,56.8c18.8-0.1,37.7,0.2,56.5-0.1l0.3,0.2c6.2,6.8,13.1,13.1,19.5,19.6c2.4,2.3,4.5,5,7.5,6.7
		c-1.2,0.9-2.5,1.2-4,1.1c-26.5-0.1-53.1,0-79.6-0.1C137.3,75.1,137.7,65.9,137.2,56.8z"/>
	<path d="M31.3,57.3c33.1,0,66.2-0.1,99.2,0.1c-0.1,8.7-0.1,17.3,0,26c-4.5,0.1-9-0.2-13.4,0.3c-1.5,0.1-3.1,0.3-4.6,0.5
		c-17.8,0.4-35.7,0.1-53.5,0.2c-2.3,0.4-3.8-1.5-5.3-2.9c-7.5-7.3-14.9-14.7-22.4-22L31.3,57.3z"/>
	<path d="M130.7,57.4l1.9,0c-0.1,8.8,0,17.6,0,26.4l-1.8-0.7C130.3,74.5,130.7,65.9,130.7,57.4z"/>
	<path d="M28.9,111.4c27.9-0.3,55.7-0.2,83.6-0.1c1.6,0,3.3,0.1,4.9,0c5.1-0.2,10.1-0.1,15.2-0.1c0,9.1,0,18.2,0,27.4
		c-5.1,0-10.1,0.1-15.2-0.1c-1.6,0-3.3,0-4.9,0c-17.5,0.2-35,0-52.5,0.1c-1.6-0.1-3.6,0.4-4.6-1.2C46.7,128.7,37.6,120.3,28.9,111.4
		z"/>
	<path d="M137.4,111.3c18.7,0,37.5-0.1,56.2,0.1c8.9,9.3,18.4,18.1,27.5,27.2c-27.9,0.4-55.8,0.1-83.7,0.1
		C137.4,129.6,137.4,120.4,137.4,111.3z"/>
	<path d="M28.9,165.4c27.9-0.1,55.7-0.2,83.6,0c1.7,0.1,3.3,0.1,5,0c5-0.2,10.1-0.1,15.1-0.1c0,9.4,0,18.8,0,28.2
		c-5.1,0-10.2,0.1-15.2-0.1c-1.6,0-3.2,0-4.8,0c-18.6,0.2-37.3,0-55.9,0.1C47.5,184.1,37.9,175,28.9,165.4z"/>
	<path d="M137.4,165.3c18.7,0.2,37.4-0.3,56.1,0.2c9.1,9.4,18.7,18.3,27.5,27.9c-27.9,0.2-55.8,0.1-83.7,0.1
		C137.5,184.1,137.4,174.7,137.4,165.3z"/>
</g>
</svg>
